contributed-vectors/bandlab.svg

<svg xmlns="http://www.w3.org/2000/svg" width="192" height="192" fill="none"><g clip-path="url(#a)"><path fill="#FF837D" d="M96 184c48.601 0 88-39.399 88-88S144.601 8 96 8 8 47.399 8 96s39.399 88 88 88Z"/><path fill="#fff" d="M98.31 41.17c1.19 0 2.15.96 2.15 2.15 0 1.18-.96 2.15-2.15 2.15s-2.15-.96-2.15-2.15.96-2.15 2.15-2.15ZM87.57 45.46c2.37 0 4.3 1.92 4.3 4.29s-1.92 4.29-4.3 4.29a4.29 4.29 0 1 1 0-8.58ZM128.86 127.99c-2.22 3.16-4.7 4.7-9.76 4.7H72.89c-5.05 0-7.53-1.54-9.76-4.7-3.05-4.33-.47-8.99-.47-8.99l20.17-39.21c.17-.32.29-.67.36-1.03.03-.15.06-.33.08-.51.14-1.15-.23-2.3-1.01-3.16l-5.39-5.99c-.48-.54-.61-.99-.66-1.39-.05-.4-.38-4.87-.39-5.39 0-.52-.11-1.02.81-1.93.71-.71 2.27-.69 2.27-.69h34.23s1.56-.02 2.27.69c.92.92.81 1.41.81 1.93s-.34 4.98-.39 5.39c-.05.4-.18.85-.66 1.39-.35.39-4.57 4.95-5.8 6.26-.22.24-.5.4-.81.47-.1.02-.2.03-.31.03H88.11c-.5 0-.78.05-1.14.44-.55.61-.19 1.32-.19 1.32l3.07 5.99c4.31 8.39 11.62 22.64 11.63 22.64.17.33.27.71.27 1.11 0 1.34-1.09 2.43-2.49 2.44-7.02 0-11.08 3.65-11.08 8.1 0 4.47 5.02 8.1 11.21 8.1 6.16 0 11.16-3.59 11.21-8.03 0 0 .13-1.47-.63-3.33-.18-.44-14.79-28.81-14.79-28.81s-.28-.74.18-1.41c.47-.66 1.25-.72 1.25-.72h12.81c1 0 1.92.56 2.38 1.45L129.34 119s2.57 4.66-.48 8.99Z"/></g><defs><clipPath id="a"><path fill="#fff" d="M0 0h192v192H0z"/></clipPath></defs></svg>

<svg width="192" height="192" viewBox="0 0 192 192" fill="none" xmlns="http://www.w3.org/2000/svg">
<g clip-path="url(#clip0)">
<path d="M96 184C144.601 184 184 144.601 184 96C184 47.3989 144.601 8 96 8C47.3989 8 8 47.3989 8 96C8 144.601 47.3989 184 96 184Z" fill="#FF837D"/>
<path d="M98.3099 41.17C99.4999 41.17 100.46 42.13 100.46 43.32C100.46 44.5 99.4999 45.47 98.3099 45.47C97.1199 45.47 96.1599 44.51 96.1599 43.32C96.1599 42.13 97.1199 41.17 98.3099 41.17Z" fill="white"/>
<path d="M87.57 45.46C89.94 45.46 91.87 47.38 91.87 49.75C91.87 52.12 89.95 54.04 87.57 54.04C85.2 54.04 83.28 52.12 83.28 49.75C83.28 47.39 85.2 45.46 87.57 45.46Z" fill="white"/>
<path d="M128.86 127.99C126.64 131.15 124.16 132.69 119.1 132.69H72.89C67.84 132.69 65.36 131.15 63.13 127.99C60.08 123.66 62.66 119 62.66 119L82.83 79.79C83 79.47 83.12 79.12 83.19 78.76C83.22 78.61 83.25 78.43 83.27 78.25C83.41 77.1 83.04 75.95 82.26 75.09L76.87 69.1C76.39 68.56 76.26 68.11 76.21 67.71C76.16 67.31 75.83 62.84 75.82 62.32C75.82 61.8 75.71 61.3 76.63 60.39C77.34 59.68 78.9 59.7 78.9 59.7H113.13C113.13 59.7 114.69 59.68 115.4 60.39C116.32 61.31 116.21 61.8 116.21 62.32C116.21 62.84 115.87 67.3 115.82 67.71C115.77 68.11 115.64 68.56 115.16 69.1C114.81 69.49 110.59 74.05 109.36 75.36C109.14 75.6 108.86 75.76 108.55 75.83C108.45 75.85 108.35 75.86 108.24 75.86H88.11C87.61 75.86 87.33 75.91 86.97 76.3C86.42 76.91 86.78 77.62 86.78 77.62C86.78 77.62 88.05 80.1 89.85 83.61C94.16 92 101.47 106.25 101.48 106.25C101.65 106.58 101.75 106.96 101.75 107.36C101.75 108.7 100.66 109.79 99.26 109.8C92.24 109.8 88.18 113.45 88.18 117.9C88.18 122.37 93.2 126 99.39 126C105.55 126 110.55 122.41 110.6 117.97C110.6 117.97 110.73 116.5 109.97 114.64C109.79 114.2 95.18 85.83 95.18 85.83C95.18 85.83 94.9 85.09 95.36 84.42C95.83 83.76 96.61 83.7 96.61 83.7H109.42C110.42 83.7 111.34 84.26 111.8 85.15L129.34 119C129.34 119 131.91 123.66 128.86 127.99Z" fill="white"/>
</g>
<defs>
<clipPath id="clip0">
<rect width="192" height="192" fill="white"/>
</clipPath>
</defs>
</svg>
